X:1
T:Title
%%score 1 { 2 | 3 }
L:1/8
Q:1/4=105
M:4/4
K:G
V:1 treble nm="Grand Piano, Soprano"
V:2 treble nm="Choir Pad, St. James’ Stockholm"
V:3 bass 
V:1
 [DG]2 [GB]2 [Gd]2 [FA]2 | [Gc]2 [GB]2 [FA]2 [DG]2 | [FA]2 [GB]2 [FA]2 [EG]2 | %3
w: By~Olof~Åhlström~(1756–1835) * * *|||
 [DF]2 [DE]2 [^CE]2 [A,D]2 | [B,D]2 [CE]2 [DG]2 [EG]2 | [DF]2 [DG]6 | [DB]2 [Dd]2 [Fc]2 [GB]2 | %7
w: ||||
 [FA]2 [EG]2 [EA]2 [FB]2 | [EG]2 [Ec]2 [FA]2 [GB]2 | [EA]2 [DG]2 [DF]2 [DG]2- | [DG]6 z2 |] %11
w: ||||
V:2
 B,2 E2 D2 D2 | C2 D2 D2 B,2 | D2 D2 D2[K:bass] B,2 | B,2 B,2 A,2 F,2 | G,2 G,2 B,2 A,2 | A,2 B,6 | %6
 G,2 A,2[K:treble] C2 D2 | D2 B,2 E2 ^D2 | B,2 C2 D2 D2 | C2 B,2 A,2 B,2- | B,6 z2 |] %11
V:3
 G,2 E,2 B,,2 D,2 | E,2 D,2 D,2 G,2 | D,2 G,2 D,2 E,2 | B,,2 G,,2 A,,2 D,2 | G,,2 C,2 B,,2 C,2 | %5
 D,2 G,,6 | z2 F,2 A,2 G,2 | D,2 E,2 C,2 B,,2 | E,2 A,,2 D,2 G,,2 | C,2 D,2 D,2 G,,2- | G,,6 z2 |] %11

